!!!COM:	Bach, Johann Sebastian
!!!CDT:	1685/02/21/-1750/07/28/
!!!OTL@@DE:	Ach lieben Christen, seid getrost
!!!SCT:	BWV 256
!!!PC#:	31
!!!AGN:	chorale
**harm	**kern	**kern	**kern	**kern
*	*ICvox	*ICvox	*ICvox	*ICvox
*	*Ibass	*Itenor	*Ialto	*Isoprn
*	*I"Bass	*I"Tenor	*I"Alto	*I"Soprano
*>[A,B]	*>[A,A,B]	*>[A,A,B]	*>[A,A,B]	*>[A,A,B]
*>norep[A,B]	*>norep[A,B]	*>norep[A,B]	*>norep[A,B]	*>norep[A,B]
*>A	*>A	*>A	*>A	*>A
*	*	*oclefC4	*oclefC3	*oclefC1
*	*clefF4	*clefGv2	*clefG2	*clefG2
*k[]	*k[]	*k[]	*k[]	*k[]
*a:	*a:	*a:	*a:	*a:
*M4/4	*M4/4	*M4/4	*M4/4	*M4/4
*met(c)	*met(c)	*met(c)	*met(c)	*met(c)
*MM100	*MM100	*MM100	*MM100	*MM100
i	4A	4c	4e	4cc
=1	=1	=1	=1	=1
C:I6	4E	4c	4g	4cc
IV	4F	4c	4f	4a
I6	4E	4c	4g	4cc
I	4C	4c	4g	4ee
=2	=2	=2	=2	=2
ii65	4F	4c	4a	4dd
V7	4G	4B	4f	4dd
I;	4C;	4G;	4e;	4cc;
viio6/V	4A	4A	4f#	4cc
=3	=3	=3	=3	=3
V	4G	4d	4g	4b
a:iv	4d	4d	4fnX	4a
i	4A	4c	4e	4cc
iv6	4F	4A	4a	4dd
=4	=4	=4	=4	=4
ii%65	4D	4f	4a	4b
V7	4E	4d	4g#	4b
I;	4AA;	4c#;	4e;	4a;
*>B	*>B	*>B	*>B	*>B
C:V	4GG	4B	4gnX	4dd
=5	=5	=5	=5	=5
I	4C	4c	4g	4ee
I6	4E	4G	4g	4ee
V	4G	4B	4d	4b
a:iv6	4F	4A	4f	4dd
=6	=6	=6	=6	=6
i	4AA	4c	4e	4cc
i6	4C	4e	4a	4cc
V;	4E;	4e;	4g#;	4b;
i	4A	4e	4a	4cc
=7	=7	=7	=7	=7
G:V6	4F#	4A	4a	4dd
V	4D	4d	4f#	4a
IV6	8EL	8GL	8eL	8ccL
vii%7	8F#J	8AJ	8eJ	8ccJ
I	4G	4B	4d	4b
=8	=8	=8	=8	=8
ii65	4C	4e	4g	4a
V7	4D	4c	4f#	4a
I;	4GG;	4B;	4d;	4g;
IV6	8EL	8GL	8eL	8ccL
vii%7	8F#J	8AJ	8eJ	8ccJ
=9	=9	=9	=9	=9
I	4G	4B	4d	4b
V6	8F#L	8dL	8f#L	8aL
a:viio7	8G#J	8dJ	8fJ	8bJ
i	4A	4c	4e	4cc
iv6	8FL	8AL	8aL	8ddL
i64	8EJ	8cJ	8aJ	8ccJ
=10	=10	=10	=10	=10
ii%65	4D	4f	4a	4b
V	4E	4B	4g#	4b
I;	4AA;	4c#;	4e;	4a;
==	==	==	==	==
*-	*-	*-	*-	*-
!!!YOR1: 371 vierstimmige Choralges&auml;nge von Johann Sebastian Bach, 
!!!YOR2: 4th ed. by Alfred D&ouml;rffel (Leipzig: Breitkopf und H&auml;rtel, 
!!!YOR2: c.1875). 178 pp. Plate "V.A.10".  reprint: J.S. Bach, 371 Four-Part 
!!!YOR4: Chorales (New York: Associated Music Publishers, Inc., c.1940).
!!!SMS: B&H, 4th ed, Alfred D&ouml;rffel, c.1875, plate V.A.10
!!!EED:  Craig Stuart Sapp
!!!EEV:  2009/05/22
